X: 15
T: Branles de villages 1
D:UGB
R:Branle
O:France
M:4/4
K:GMix
dd|\
ge dc|B2c2|d2dd|BG dd|ge dc|B2c2|B2Ac|G2::
GA|\
BA/B/ cc|BA B/c/d|G/A/B A2|A2GA|\
BA/B/ cc|BA B/c/d|G/A/B A2|G2:|
%%sep 1 1 500
